src/collections/integrations/kubernetes/icons/components/priority-class/icons/white/priority-class-white.svg

<svg width="96" height="63" viewBox="0 0 96 63" fill="none" xmlns="http://www.w3.org/2000/svg">
<path d="M22.5001 44.5H17.5001V1.7C17.5001 0.8 16.8001 0 15.8001 0H9.60007C8.70007 0 7.90007 0.7 7.90007 1.7V44.5H2.90007C0.500069 44.5 -0.799931 47.2 0.600069 49.1L10.4001 61.7C11.6001 63.2 13.8001 63.2 14.9001 61.7L24.7001 49.1C26.3001 47.3 24.9001 44.5 22.5001 44.5Z" fill="white"/>
<path d="M55.4001 46.7998C55.1001 46.4998 54.6001 46.2998 54.1001 46.2998H34.0001C32.9001 46.2998 32.1001 47.1998 32.1001 48.1998V60.9998C32.1001 61.9998 33.0001 62.8998 34.0001 62.8998H54.2001C54.7001 62.8998 55.1001 62.6998 55.5001 62.3998L62.8001 55.9998C63.7001 55.1998 63.7001 53.8998 62.8001 53.0998L55.4001 46.7998Z" fill="white"/>
<path d="M71.3001 23.7002C71.0001 23.4002 70.5001 23.2002 70.0001 23.2002H34.0001C32.9001 23.2002 32.1001 24.1002 32.1001 25.1002V37.9002C32.1001 38.9002 33.0001 39.8002 34.0001 39.8002H70.0001C70.5001 39.8002 70.9001 39.6002 71.3001 39.3002L78.6001 32.9002C79.5001 32.1002 79.5001 30.8002 78.6001 30.0002L71.3001 23.7002Z" fill="white"/>
<path d="M94.5001 7L87.1001 0.5C86.8001 0.2 86.3001 0 85.8001 0H34.0001C32.9001 0 32.1001 0.9 32.1001 1.9V14.7C32.1001 15.7 33.0001 16.6 34.0001 16.6H85.9001C86.4001 16.6 86.8001 16.4 87.2001 16.1L94.5001 9.7C95.3001 9.1 95.3001 7.7 94.5001 7Z" fill="white"/>
</svg>

<svg version="1.1" xmlns="http://www.w3.org/2000/svg" xmlns:xlink="http://www.w3.org/1999/xlink" x="0px" y="0px"
         viewBox="0 0 95.1 62.9" style="enable-background:new 0 0 95.1 62.9;" xml:space="preserve">
<g id="Layer_2">
</g>
<g id="Layer_1">
        <g>
                <path fill="#FFFFFF" d="M22.5,44.5h-5V1.7c0-0.9-0.7-1.7-1.7-1.7H9.6C8.7,0,7.9,0.7,7.9,1.7v42.8h-5c-2.4,0-3.7,2.7-2.3,4.6l9.8,12.6
                        c1.2,1.5,3.4,1.5,4.5,0l9.8-12.6C26.3,47.3,24.9,44.5,22.5,44.5z"/>
                <path fill="#FFFFFF" d="M55.4,46.8c-0.3-0.3-0.8-0.5-1.3-0.5H34c-1.1,0-1.9,0.9-1.9,1.9V61c0,1,0.9,1.9,1.9,1.9h20.2c0.5,0,0.9-0.2,1.3-0.5
                        l7.3-6.4c0.9-0.8,0.9-2.1,0-2.9L55.4,46.8z"/>
                <path fill="#FFFFFF" d="M71.3,23.7c-0.3-0.3-0.8-0.5-1.3-0.5H34c-1.1,0-1.9,0.9-1.9,1.9v12.8c0,1,0.9,1.9,1.9,1.9h36c0.5,0,0.9-0.2,1.3-0.5
                        l7.3-6.4c0.9-0.8,0.9-2.1,0-2.9L71.3,23.7z"/>
                <path fill="#FFFFFF" d="M94.5,7l-7.4-6.5C86.8,0.2,86.3,0,85.8,0H34c-1.1,0-1.9,0.9-1.9,1.9v12.8c0,1,0.9,1.9,1.9,1.9h51.9c0.5,0,0.9-0.2,1.3-0.5
                        l7.3-6.4C95.3,9.1,95.3,7.7,94.5,7z"/>
        </g>
</g>
</svg>
